X:183
T:Louth Quick Step. JGi.136
R: polka 32
M:2/4
L:1/8
Q:1/4=120
S:Joshua Gibbons MS,1823,Tealby,Lincs.
R:quick step
O:Tealby,Lincolnshire
Z:VMP/R.Greig, 2009
K:C
ee/c/ eg|fdd2|ecBc|d/c/B/A/G2|ee/c/ eg|
fddf|f/e/d/c/ B/c/d/B/|c ec2:|
|:c'2ba|agg2|a2gf|fee2|c'2ba|
ag gf|f/e/d/c/ B/c/d/B/|c f c2:|]

